public/assets/pages/Home/AboutUsSection/AboutUsReasons/carbon_enterprise.svg

<svg fill="none" height="44" viewBox="0 0 44 44" width="44" xmlns="http://www.w3.org/2000/svg"><g fill="#175d31"><path d="m11 11h2.75v5.5h-2.75zm0 8.25h2.75v5.5h-2.75zm8.25-8.25h2.75v5.5h-2.75zm0 8.25h2.75v5.5h-2.75zm-8.25 8.25h2.75v5.5h-2.75zm8.25 0h2.75v5.5h-2.75z"/><path d="m41.25 19.25c0-.7293-.2897-1.4288-.8055-1.9445-.5157-.5158-1.2152-.8055-1.9445-.8055h-8.25v-11c0-.72935-.2897-1.42882-.8055-1.94454-.5157-.51573-1.2152-.80546-1.9445-.80546h-22c-.72935 0-1.42882.28973-1.94454.80546-.51573.51572-.80546 1.21519-.80546 1.94454v35.75h38.5zm-35.75-13.75h22v33h-22zm24.75 33v-19.25h8.25v19.25z"/></g></svg>

<svg width="44" height="44" viewBox="0 0 44 44" fill="none" xmlns="http://www.w3.org/2000/svg">
<path d="M11 11H13.75V16.5H11V11ZM11 19.25H13.75V24.75H11V19.25ZM19.25 11H22V16.5H19.25V11ZM19.25 19.25H22V24.75H19.25V19.25ZM11 27.5H13.75V33H11V27.5ZM19.25 27.5H22V33H19.25V27.5Z" fill="#175D31"/>
<path d="M41.25 19.25C41.25 18.5207 40.9603 17.8212 40.4445 17.3055C39.9288 16.7897 39.2293 16.5 38.5 16.5H30.25V5.5C30.25 4.77065 29.9603 4.07118 29.4445 3.55546C28.9288 3.03973 28.2293 2.75 27.5 2.75H5.5C4.77065 2.75 4.07118 3.03973 3.55546 3.55546C3.03973 4.07118 2.75 4.77065 2.75 5.5V41.25H41.25V19.25ZM5.5 5.5H27.5V38.5H5.5V5.5ZM30.25 38.5V19.25H38.5V38.5H30.25Z" fill="#175D31"/>
</svg>
